images/logo/svg/Inkscape_logo_(2-colour).svg

<svg height="390" width="390" xmlns="http://www.w3.org/2000/svg"><path d="m163.15 27.83-134.34 137.47c-45.39 56.21 30.89 49.67 63.59 65.86 11.73 11.99-44.96 20.84-33.23 32.84 11.73 11.99 70.93 23.1 82.68 35.09 11.73 11.99-24.01 24.71-12.28 36.7s38.86.63 43.94 28.31c3.62 19.78 48.89 8.5 71.03-7.7 11.73-12-22.44-10.87-10.71-22.86 29.17-29.83 56.33-10.84 66.31-40.73 4.93-14.77-42.94-22.77-31.19-34.76 33.75-19.71 150.4-32.54 95.05-87.89l-139.25-142.33c-17.03-16.35-45.45-16.53-61.6 0zm154.31 264.98c0 6.82 50.25 11.29 50.25-1.61-7.16-20.72-44.31-19.32-50.25 1.61zm-226.36 36.24c11.9 10.29 30.28-2.56 35.79-16.92-11.53-15.32-54.69.55-35.79 16.92zm220.06-22.23c-15.34 13.76 1.72 27.72 16.84 18.83 3.37-3.42-.09-15.41-16.84-18.83z"/><g fill="#fff"><path d="m131 238.6c3.59 2.23 57.89 13.26 71.16 15.46 4.6.97 1.34 5.71-5 8.91-14.3 3.8-83.66-24.37-66.16-24.37z"/><path d="m216.63 37.47 53.15 53.98c5.04 5.15 4.97 15.13 2.15 18l-26.39-21.11-5.19 31.26-22.05-11.64-35.31 22.31-11.69-47.03-18.97 32.82h-29c-11.82 0-13.21-15-2.47-25.74 18.76-20.25 40.29-40.89 51.99-52.85 11.76-12.02 32.25-11.68 43.78 0z"/></g></svg>

<?xml version="1.0" encoding="UTF-8" standalone="no"?>
<!-- Created with Inkscape (http://www.inkscape.org/) -->
<svg xmlns="http://www.w3.org/2000/svg" version="1.0" width="390" height="390">
  <g id="inkscape-logo">
    <path d="M163.15,27.83L28.81,165.3C-16.58,221.51 59.7,214.97 92.4,231.16C104.13,243.15 47.44,252 59.17,264C70.9,275.99 130.1,287.1 141.85,299.09C153.58,311.08 117.84,323.8 129.57,335.79C141.3,347.78 168.43,336.42 173.51,364.1C177.13,383.88 222.4,372.6 244.54,356.4C256.27,344.4 222.1,345.53 233.83,333.54C263,303.71 290.16,322.7 300.14,292.81C305.07,278.04 257.2,270.04 268.95,258.05C302.7,238.34 419.35,225.51 364,170.16L224.75,27.83C207.72,11.48 179.3,11.3 163.15,27.83 zM317.46,292.81C317.46,299.63 367.71,304.1 367.71,291.2C360.55,270.48 323.4,271.88 317.46,292.81 zM91.1,329.05C103,339.34 121.38,326.49 126.89,312.13C115.36,296.81 72.2,312.68 91.1,329.05 zM311.16,306.82C295.82,320.58 312.88,334.54 328,325.65C331.37,322.23 327.91,310.24 311.16,306.82z"/>
    <path fill="white" d="M131,238.6C134.59,240.83 188.89,251.86 202.16,254.06C206.76,255.03 203.5,259.77 197.16,262.97C182.86,266.77 113.5,238.6 131,238.6z"/>
    <path fill="white" d="M216.63,37.47L269.78,91.45C274.82,96.6 274.75,106.58 271.93,109.45L245.54,88.34L240.35,119.6L218.3,107.96L182.99,130.27L171.3,83.24L152.33,116.06L123.33,116.06C111.51,116.06 110.12,101.06 120.86,90.32C139.62,70.07 161.15,49.43 172.85,37.47C184.61,25.45 205.1,25.79 216.63,37.47z"/>
  </g>
</svg>
